!! 00000] TT[WS
!!!OTL: Jie shunshun
!!!ARE: Asia, China, Shanxi Linxian
!! Ethnic Group: Han
!! WII, 89 (3)
!!!SCT: J0532
!!!YEM: Copyright 1995, estate of Helmut Schaffrath.
**kern
*ICvox
*Ivox
*M2/4
*k[f#]
*G:
{8.gg
16ee
8dd
8dd
=1
8ee
8b
4a}
=2
{8.gg
16ee
8dd
8b
=3
16a
16b
16a
16g
4e}
=4
{8.ee
16ee
8ff#
8ee
=5
8a
16b
16a
4e}
=6
{16a
16a
16a
16b
8dd
8f#
=7
8e
8d
4e}
==
!!!AGN: Xiaodiao. Qingge, Sichun
!!!ONB: ESAC (Essen Associative Code) Database: CHINA
!!!AMT: simple duple
!!!AIN: vox
!!!EED: Helmut Schaffrath
!!!EEV: 1.0
*-
